public/img/help.svg

<svg width="24" height="24" viewBox="0 0 24 24" fill="none" xmlns="http://www.w3.org/2000/svg">
<path d="M20.4897 3.5115C15.8077 -1.1705 8.19275 -1.1705 3.51075 3.5115C-1.17025 8.1925 -1.17025 15.8095 3.51075 20.4895C5.85275 22.8315 8.92575 24.0005 12.0008 24.0005C15.0758 24.0005 18.1487 22.8315 20.4897 20.4905C25.1708 15.8095 25.1708 8.1925 20.4897 3.5115V3.5115ZM13.0008 18.0065C13.0008 18.5585 12.5528 19.0065 12.0008 19.0065C11.4488 19.0065 11.0008 18.5585 11.0008 18.0065C11.0008 18.0045 11.0018 18.0025 11.0018 18.0005C11.0018 17.9985 11.0008 17.9975 11.0008 17.9955C11.0008 17.4435 11.4488 16.9955 12.0008 16.9955C12.5528 16.9955 13.0008 17.4435 13.0008 17.9955C13.0008 17.9975 12.9998 17.9995 12.9998 18.0015C12.9998 18.0035 13.0008 18.0045 13.0008 18.0065ZM17.0007 9.9955C17.0007 10.9335 16.5528 11.8305 15.8018 12.3945L12.6008 14.7945C12.4208 14.9295 12.2108 14.9945 12.0018 14.9945C11.6968 14.9945 11.3978 14.8565 11.2008 14.5945C10.8688 14.1525 10.9588 13.5255 11.4008 13.1945L14.6008 10.7945C14.8508 10.6065 14.9998 10.3075 14.9998 9.9945V8.9945C14.9998 8.4435 14.5518 7.9945 13.9998 7.9945H10.9998C10.4478 7.9945 9.99975 8.4435 9.99975 8.9945C9.99975 9.5465 9.55275 9.9945 8.99975 9.9945C8.44675 9.9945 7.99975 9.5465 7.99975 8.9945C7.99975 7.3405 9.34575 5.9945 10.9998 5.9945H13.9998C15.6538 5.9945 16.9998 7.3405 16.9998 8.9945V9.9955H17.0007Z" fill="#5F6368"/>
</svg>

<svg xmlns="http://www.w3.org/2000/svg" width="24" height="24" fill="none" viewBox="0 0 24 24">
    <g clip-path="url(#a)">
        <path fill="#000" d="M20.489 3.511c-4.682-4.682-12.297-4.682-16.979 0-4.681 4.681-4.681 12.298 0 16.978A11.965 11.965 0 0 0 12 24c3.075 0 6.148-1.169 8.489-3.51 4.681-4.681 4.681-12.298 0-16.979zM13 18.006a1 1 0 0 1-2 0l.001-.006-.001-.005a1 1 0 0 1 2 0l-.001.006.001.005zm4-8.011c0 .938-.448 1.835-1.199 2.399l-3.201 2.4a.998.998 0 0 1-1.4-.2 1 1 0 0 1 .2-1.4l3.2-2.4c.25-.188.399-.487.399-.8v-1c0-.551-.448-1-1-1h-3c-.552 0-1 .449-1 1a1 1 0 1 1-2 0c0-1.654 1.346-3 3-3h3c1.654 0 3 1.346 3 3v1.001H17z"/>
    </g>
    <defs>
        <clipPath id="a">
            <path fill="#fff" d="M0 0h24v24H0z"/>
        </clipPath>
    </defs>
</svg>
